X:1
T:Balmoral Castle
T:Balmoral Castle
T:Alexander Walker
C:Alexander Walker
L:1/8
Q:1/8=232
M:4/4
K:E
V:1 treble 
V:1
|: B, | E2 GF ED B,E | DB, G,A, DE FD | E2 GF EF GB | AF DF E2 EB, | E2 GF ED B,E | %6
 DB, G,A, DE FD | E2 GF EF GB | AF DF E2 Ed | eB ef g2 fe | dA de fe df | eB ef g2 fe | %12
 dBAF E2 Ed | eB ef g2 fe | dA de fe df | eg fe dB AF | GB AF E2 E :| %17

